images/content/johnson-solids/gyroelongated-pentagonal-pyramid.svg

<?xml version="1.0" encoding="UTF-8"?>
<svg xmlns="http://www.w3.org/2000/svg" xmlns:xlink="http://www.w3.org/1999/xlink" width="238pt" height="200pt" viewBox="0 0 238 200" version="1.2">
<g id="surface1">
<path style=" stroke:none;fill-rule:nonzero;fill:rgb(88.867188%,54.296875%,38.500977%);fill-opacity:1;" d="M 60.085938 105.308594 L 5.683594 82.226562 L 96.351562 11.917969 "/>
<path style="fill:none;stroke-width:8.16;stroke-linecap:round;stroke-linejoin:round;stroke:rgb(0%,0%,0%);stroke-opacity:1;stroke-miterlimit:10;" d="M 600.859375 946.914062 L 56.835938 1177.734375 L 963.515625 1880.820312 Z M 600.859375 946.914062 " transform="matrix(0.1,0,0,-0.1,0,200)"/>
<path style=" stroke:none;fill-rule:nonzero;fill:rgb(72.264099%,47.192383%,54.6875%);fill-opacity:1;" d="M 168.226562 81.890625 L 60.085938 105.308594 L 96.351562 11.917969 "/>
<path style="fill:none;stroke-width:8.16;stroke-linecap:round;stroke-linejoin:round;stroke:rgb(0%,0%,0%);stroke-opacity:1;stroke-miterlimit:10;" d="M 1682.265625 1181.09375 L 600.859375 946.914062 L 963.515625 1880.820312 Z M 1682.265625 1181.09375 " transform="matrix(0.1,0,0,-0.1,0,200)"/>
<path style=" stroke:none;fill-rule:nonzero;fill:rgb(97.459412%,83.006287%,63.476562%);fill-opacity:1;" d="M 60.085938 105.308594 L 35.527344 197.707031 L 5.683594 82.226562 "/>
<path style="fill:none;stroke-width:8.16;stroke-linecap:round;stroke-linejoin:round;stroke:rgb(0%,0%,0%);stroke-opacity:1;stroke-miterlimit:10;" d="M 600.859375 946.914062 L 355.273438 22.929688 L 56.835938 1177.734375 Z M 600.859375 946.914062 " transform="matrix(0.1,0,0,-0.1,0,200)"/>
<path style=" stroke:none;fill-rule:nonzero;fill:rgb(80.664062%,76.5625%,81.443787%);fill-opacity:1;" d="M 60.085938 105.308594 L 134.53125 187.832031 L 35.527344 197.707031 "/>
<path style="fill:none;stroke-width:8.16;stroke-linecap:round;stroke-linejoin:round;stroke:rgb(0%,0%,0%);stroke-opacity:1;stroke-miterlimit:10;" d="M 600.859375 946.914062 L 1345.3125 121.679688 L 355.273438 22.929688 Z M 600.859375 946.914062 " transform="matrix(0.1,0,0,-0.1,0,200)"/>
<path style=" stroke:none;fill-rule:nonzero;fill:rgb(70.3125%,58.789062%,72.264099%);fill-opacity:1;" d="M 168.226562 81.890625 L 134.53125 187.832031 L 60.085938 105.308594 "/>
<path style="fill:none;stroke-width:8.16;stroke-linecap:round;stroke-linejoin:round;stroke:rgb(0%,0%,0%);stroke-opacity:1;stroke-miterlimit:10;" d="M 1682.265625 1181.09375 L 1345.3125 121.679688 L 600.859375 946.914062 Z M 1682.265625 1181.09375 " transform="matrix(0.1,0,0,-0.1,0,200)"/>
<path style=" stroke:none;fill-rule:nonzero;fill:rgb(44.700623%,10.301208%,28.808594%);fill-opacity:1;" d="M 207.878906 38.40625 L 168.226562 81.890625 L 96.351562 11.917969 "/>
<path style="fill:none;stroke-width:8.16;stroke-linecap:round;stroke-linejoin:round;stroke:rgb(0%,0%,0%);stroke-opacity:1;stroke-miterlimit:10;" d="M 2078.789062 1615.9375 L 1682.265625 1181.09375 L 963.515625 1880.820312 Z M 2078.789062 1615.9375 " transform="matrix(0.1,0,0,-0.1,0,200)"/>
<path style=" stroke:none;fill-rule:nonzero;fill:rgb(51.5625%,47.605896%,75.193787%);fill-opacity:1;" d="M 168.226562 81.890625 L 228.621094 155.964844 L 134.53125 187.832031 "/>
<path style="fill:none;stroke-width:8.16;stroke-linecap:round;stroke-linejoin:round;stroke:rgb(0%,0%,0%);stroke-opacity:1;stroke-miterlimit:10;" d="M 1682.265625 1181.09375 L 2286.210938 440.351562 L 1345.3125 121.679688 Z M 1682.265625 1181.09375 " transform="matrix(0.1,0,0,-0.1,0,200)"/>
<path style=" stroke:none;fill-rule:nonzero;fill:rgb(22.605896%,8.494568%,47.093201%);fill-opacity:1;" d="M 207.878906 38.40625 L 228.621094 155.964844 L 168.226562 81.890625 "/>
<path style="fill:none;stroke-width:8.16;stroke-linecap:round;stroke-linejoin:round;stroke:rgb(0%,0%,0%);stroke-opacity:1;stroke-miterlimit:10;" d="M 2078.789062 1615.9375 L 2286.210938 440.351562 L 1682.265625 1181.09375 Z M 2078.789062 1615.9375 " transform="matrix(0.1,0,0,-0.1,0,200)"/>
<path style=" stroke:none;fill-rule:nonzero;fill:rgb(47.801208%,0%,0%);fill-opacity:1;" d="M 134.53125 187.832031 L 228.621094 155.964844 L 56.78125 169.207031 "/>
<path style="fill:none;stroke-width:8.16;stroke-linecap:round;stroke-linejoin:round;stroke:rgb(0%,0%,0%);stroke-opacity:1;stroke-miterlimit:10;" d="M 1345.3125 121.679688 L 2286.210938 440.351562 " transform="matrix(0.1,0,0,-0.1,0,200)"/>
<path style="fill-rule:nonzero;fill:rgb(47.801208%,0%,0%);fill-opacity:1;stroke-width:8.16;stroke-linecap:round;stroke-linejoin:round;stroke:rgb(0%,0%,0%);stroke-opacity:1;stroke-miterlimit:10;" d="M 567.8125 307.929688 L 355.273438 22.929688 L 1345.3125 121.679688 " transform="matrix(0.1,0,0,-0.1,0,200)"/>
<path style=" stroke:none;fill-rule:nonzero;fill:rgb(42.088318%,85.351562%,94.139099%);fill-opacity:1;" d="M 100.882812 34.027344 L 207.878906 38.40625 L 96.351562 11.917969 "/>
<path style="fill:none;stroke-width:8.16;stroke-linecap:round;stroke-linejoin:round;stroke:rgb(0%,0%,0%);stroke-opacity:1;stroke-miterlimit:10;" d="M 1008.828125 1659.726562 L 2078.789062 1615.9375 L 963.515625 1880.820312 Z M 1008.828125 1659.726562 " transform="matrix(0.1,0,0,-0.1,0,200)"/>
<path style=" stroke:none;fill-rule:nonzero;fill:rgb(0%,39.697266%,83.984375%);fill-opacity:1;" d="M 5.683594 82.226562 L 100.882812 34.027344 L 96.351562 11.917969 "/>
<path style="fill:none;stroke-width:8.16;stroke-linecap:round;stroke-linejoin:round;stroke:rgb(0%,0%,0%);stroke-opacity:1;stroke-miterlimit:10;" d="M 56.835938 1177.734375 L 1008.828125 1659.726562 L 963.515625 1880.820312 Z M 56.835938 1177.734375 " transform="matrix(0.1,0,0,-0.1,0,200)"/>
<path style=" stroke:none;fill-rule:nonzero;fill:rgb(0%,0%,22.605896%);fill-opacity:1;" d="M 5.683594 82.226562 L 35.527344 197.707031 L 56.78125 169.207031 "/>
<path style="fill:none;stroke-width:8.16;stroke-linecap:round;stroke-linejoin:round;stroke:rgb(0%,0%,0%);stroke-opacity:1;stroke-miterlimit:10;" d="M 56.835938 1177.734375 L 355.273438 22.929688 L 567.8125 307.929688 Z M 56.835938 1177.734375 " transform="matrix(0.1,0,0,-0.1,0,200)"/>
<path style="fill-rule:nonzero;fill:rgb(47.801208%,0%,0%);fill-opacity:1;stroke-width:8.16;stroke-linecap:round;stroke-linejoin:round;stroke:rgb(0%,0%,0%);stroke-opacity:1;stroke-miterlimit:10;" d="M 2286.210938 440.351562 L 1969.492188 611.09375 L 567.8125 307.929688 " transform="matrix(0.1,0,0,-0.1,0,200)"/>
<path style=" stroke:none;fill-rule:nonzero;fill:rgb(98.4375%,85.351562%,47.410583%);fill-opacity:1;" d="M 207.878906 38.40625 L 196.949219 138.890625 L 228.621094 155.964844 "/>
<path style="fill:none;stroke-width:8.16;stroke-linecap:round;stroke-linejoin:round;stroke:rgb(0%,0%,0%);stroke-opacity:1;stroke-miterlimit:10;" d="M 2078.789062 1615.9375 L 1969.492188 611.09375 L 2286.210938 440.351562 Z M 2078.789062 1615.9375 " transform="matrix(0.1,0,0,-0.1,0,200)"/>
<path style=" stroke:none;fill-rule:nonzero;fill:rgb(42.993164%,42.797852%,75.584412%);fill-opacity:1;" d="M 5.683594 82.226562 L 56.78125 169.207031 L 100.882812 34.027344 "/>
<path style="fill:none;stroke-width:8.16;stroke-linecap:round;stroke-linejoin:round;stroke:rgb(0%,0%,0%);stroke-opacity:1;stroke-miterlimit:10;" d="M 56.835938 1177.734375 L 567.8125 307.929688 L 1008.828125 1659.726562 Z M 56.835938 1177.734375 " transform="matrix(0.1,0,0,-0.1,0,200)"/>
<path style=" stroke:none;fill-rule:nonzero;fill:rgb(83.201599%,82.617188%,84.179688%);fill-opacity:1;" d="M 100.882812 34.027344 L 196.949219 138.890625 L 207.878906 38.40625 "/>
<path style="fill:none;stroke-width:8.16;stroke-linecap:round;stroke-linejoin:round;stroke:rgb(0%,0%,0%);stroke-opacity:1;stroke-miterlimit:10;" d="M 1008.828125 1659.726562 L 1969.492188 611.09375 L 2078.789062 1615.9375 Z M 1008.828125 1659.726562 " transform="matrix(0.1,0,0,-0.1,0,200)"/>
<path style=" stroke:none;fill-rule:nonzero;fill:rgb(70.117188%,58.984375%,72.851562%);fill-opacity:1;" d="M 100.882812 34.027344 L 56.78125 169.207031 L 196.949219 138.890625 "/>
<path style="fill:none;stroke-width:8.16;stroke-linecap:round;stroke-linejoin:round;stroke:rgb(0%,0%,0%);stroke-opacity:1;stroke-miterlimit:10;" d="M 1008.828125 1659.726562 L 567.8125 307.929688 L 1969.492188 611.09375 Z M 1008.828125 1659.726562 " transform="matrix(0.1,0,0,-0.1,0,200)"/>
</g>
</svg>

<svg xmlns="http://www.w3.org/2000/svg" width="238pt" height="200pt" viewBox="0 0 238 200" version="1.2"><path style="stroke:none;fill-rule:nonzero;fill:#e38a62;fill-opacity:1" d="M60.086 105.309 5.684 82.227l90.668-70.309"/><path style="fill:none;stroke-width:8.16;stroke-linecap:round;stroke-linejoin:round;stroke:#000;stroke-opacity:1;stroke-miterlimit:10" d="m600.86 946.914-544.024 230.82 906.68 703.086Zm0 0" transform="matrix(.1 0 0 -.1 0 200)"/><path style="stroke:none;fill-rule:nonzero;fill:#b8788b;fill-opacity:1" d="M168.227 81.89 60.086 105.31l36.266-93.391"/><path style="fill:none;stroke-width:8.16;stroke-linecap:round;stroke-linejoin:round;stroke:#000;stroke-opacity:1;stroke-miterlimit:10" d="M1682.266 1181.094 600.859 946.914l362.657 933.906Zm0 0" transform="matrix(.1 0 0 -.1 0 200)"/><path style="stroke:none;fill-rule:nonzero;fill:#f9d4a2;fill-opacity:1" d="m60.086 105.309-24.559 92.398L5.684 82.227"/><path style="fill:none;stroke-width:8.16;stroke-linecap:round;stroke-linejoin:round;stroke:#000;stroke-opacity:1;stroke-miterlimit:10" d="M600.86 946.914 355.272 22.93 56.836 1177.734Zm0 0" transform="matrix(.1 0 0 -.1 0 200)"/><path style="stroke:none;fill-rule:nonzero;fill:#cec3d0;fill-opacity:1" d="m60.086 105.309 74.445 82.523-99.004 9.875"/><path style="fill:none;stroke-width:8.16;stroke-linecap:round;stroke-linejoin:round;stroke:#000;stroke-opacity:1;stroke-miterlimit:10" d="m600.86 946.914 744.452-825.234-990.039-98.75Zm0 0" transform="matrix(.1 0 0 -.1 0 200)"/><path style="stroke:none;fill-rule:nonzero;fill:#b396b8;fill-opacity:1" d="M168.227 81.89 134.53 187.833l-74.445-82.523"/><path style="fill:none;stroke-width:8.16;stroke-linecap:round;stroke-linejoin:round;stroke:#000;stroke-opacity:1;stroke-miterlimit:10" d="M1682.266 1181.094 1345.312 121.68 600.86 946.914Zm0 0" transform="matrix(.1 0 0 -.1 0 200)"/><path style="stroke:none;fill-rule:nonzero;fill:#721a49;fill-opacity:1" d="m207.879 38.406-39.652 43.485-71.875-69.973"/><path style="fill:none;stroke-width:8.16;stroke-linecap:round;stroke-linejoin:round;stroke:#000;stroke-opacity:1;stroke-miterlimit:10" d="m2078.79 1615.938-396.524-434.844-718.75 699.726Zm0 0" transform="matrix(.1 0 0 -.1 0 200)"/><path style="stroke:none;fill-rule:nonzero;fill:#8379c0;fill-opacity:1" d="m168.227 81.89 60.394 74.075-94.09 31.867"/><path style="fill:none;stroke-width:8.16;stroke-linecap:round;stroke-linejoin:round;stroke:#000;stroke-opacity:1;stroke-miterlimit:10" d="m1682.266 1181.094 603.945-740.742-940.898-318.672Zm0 0" transform="matrix(.1 0 0 -.1 0 200)"/><path style="stroke:none;fill-rule:nonzero;fill:#3a1678;fill-opacity:1" d="m207.879 38.406 20.742 117.559-60.394-74.074"/><path style="fill:none;stroke-width:8.16;stroke-linecap:round;stroke-linejoin:round;stroke:#000;stroke-opacity:1;stroke-miterlimit:10" d="m2078.79 1615.938 207.42-1175.586-603.944 740.742Zm0 0" transform="matrix(.1 0 0 -.1 0 200)"/><path style="stroke:none;fill-rule:nonzero;fill:#7a0000;fill-opacity:1" d="m134.531 187.832 94.09-31.867-171.84 13.242"/><path style="fill:none;stroke-width:8.16;stroke-linecap:round;stroke-linejoin:round;stroke:#000;stroke-opacity:1;stroke-miterlimit:10" d="m1345.313 121.68 940.898 318.672" transform="matrix(.1 0 0 -.1 0 200)"/><path style="fill-rule:nonzero;fill:#7a0000;fill-opacity:1;stroke-width:8.16;stroke-linecap:round;stroke-linejoin:round;stroke:#000;stroke-opacity:1;stroke-miterlimit:10" d="m567.813 307.93-212.54-285 990.04 98.75" transform="matrix(.1 0 0 -.1 0 200)"/><path style="stroke:none;fill-rule:nonzero;fill:#6bdaf0;fill-opacity:1" d="m100.883 34.027 106.996 4.38L96.352 11.917"/><path style="fill:none;stroke-width:8.16;stroke-linecap:round;stroke-linejoin:round;stroke:#000;stroke-opacity:1;stroke-miterlimit:10" d="m1008.828 1659.727 1069.961-43.79L963.516 1880.82Zm0 0" transform="matrix(.1 0 0 -.1 0 200)"/><path style="stroke:none;fill-rule:nonzero;fill:#0065d6;fill-opacity:1" d="m5.684 82.227 95.199-48.2-4.531-22.109"/><path style="fill:none;stroke-width:8.16;stroke-linecap:round;stroke-linejoin:round;stroke:#000;stroke-opacity:1;stroke-miterlimit:10" d="m56.836 1177.734 951.992 481.993-45.312 221.093Zm0 0" transform="matrix(.1 0 0 -.1 0 200)"/><path style="stroke:none;fill-rule:nonzero;fill:#00003a;fill-opacity:1" d="m5.684 82.227 29.843 115.48 21.254-28.5"/><path style="fill:none;stroke-width:8.16;stroke-linecap:round;stroke-linejoin:round;stroke:#000;stroke-opacity:1;stroke-miterlimit:10" d="M56.836 1177.734 355.273 22.93l212.54 285Zm0 0" transform="matrix(.1 0 0 -.1 0 200)"/><path style="fill-rule:nonzero;fill:#7a0000;fill-opacity:1;stroke-width:8.16;stroke-linecap:round;stroke-linejoin:round;stroke:#000;stroke-opacity:1;stroke-miterlimit:10" d="m2286.21 440.352-316.718 170.742L567.812 307.93" transform="matrix(.1 0 0 -.1 0 200)"/><path style="stroke:none;fill-rule:nonzero;fill:#fbda79;fill-opacity:1" d="m207.879 38.406-10.93 100.485 31.672 17.074"/><path style="fill:none;stroke-width:8.16;stroke-linecap:round;stroke-linejoin:round;stroke:#000;stroke-opacity:1;stroke-miterlimit:10" d="M2078.79 1615.938 1969.491 611.093l316.719-170.742Zm0 0" transform="matrix(.1 0 0 -.1 0 200)"/><path style="stroke:none;fill-rule:nonzero;fill:#6e6dc1;fill-opacity:1" d="m5.684 82.227 51.097 86.98 44.102-135.18"/><path style="fill:none;stroke-width:8.16;stroke-linecap:round;stroke-linejoin:round;stroke:#000;stroke-opacity:1;stroke-miterlimit:10" d="M56.836 1177.734 567.812 307.93l441.016 1351.797Zm0 0" transform="matrix(.1 0 0 -.1 0 200)"/><path style="stroke:none;fill-rule:nonzero;fill:#d4d3d7;fill-opacity:1" d="m100.883 34.027 96.066 104.864 10.93-100.485"/><path style="fill:none;stroke-width:8.16;stroke-linecap:round;stroke-linejoin:round;stroke:#000;stroke-opacity:1;stroke-miterlimit:10" d="m1008.828 1659.727 960.664-1048.633 109.297 1004.843Zm0 0" transform="matrix(.1 0 0 -.1 0 200)"/><path style="stroke:none;fill-rule:nonzero;fill:#b396ba;fill-opacity:1" d="M100.883 34.027 56.78 169.207l140.168-30.316"/><path style="fill:none;stroke-width:8.16;stroke-linecap:round;stroke-linejoin:round;stroke:#000;stroke-opacity:1;stroke-miterlimit:10" d="M1008.828 1659.727 567.813 307.93l1401.68 303.164Zm0 0" transform="matrix(.1 0 0 -.1 0 200)"/></svg>
